X:241
T:24. CIRCASSIAN CIRCLE
T: Picking up Sticks/The Old Mole
M:6/8
L:1/8
Q:160
S:Playford
O:Manuscript
A:English
K:G
G|\
"G"B2d dcd|"Am"c2A "D"A2A|A>Bc "C"cdc|"G"B2G G2::\
G|\
"G"B2d dcd|"C"cz2 "D"A3|A>Bc "C"cdc|"G"BGG G2::
G|\
"G"g2g "Em"e>fg|"D"a2f d3|"G"g2g "Em"e>fg|"D"a3 d'3|\
"G"g2g "Em"e>fg|"D"a2f d3|"C"cdc "D"B2A|"G"(G3 G2):|
